build/img/sprite_auto.svg

<svg xmlns="http://www.w3.org/2000/svg" xmlns:xlink="http://www.w3.org/1999/xlink"><defs>
<clipPath id="clip0">
<rect width="12" height="7.4" fill="white" transform="translate(0 12) rotate(-90)"/>
</clipPath>
</defs><symbol id="icon-arrow-link" viewBox="0 0 8 12">
<g clip-path="url(#clip0)">
<path fill-rule="evenodd" clip-rule="evenodd" d="M0 1.4L4.6 6L0 10.6L1.4 12L7.4 6L1.4 0L0 1.4Z" fill="#2C2E3F" fill-opacity="0.5"/>
</g>

</symbol><symbol id="icon-email" viewBox="0 0 26 20">
<path d="M24.2273 0H1.77273C0.768182 0 0 0.764706 0 1.76471V18.2353C0 19.2353 0.768182 20 1.77273 20H24.2273C25.2318 20 26 19.2353 26 18.2353V1.76471C26 0.764706 25.2318 0 24.2273 0ZM24.2273 17L19.5591 12.3529C19.2045 12 18.6727 12 18.3182 12.3529C17.9636 12.7059 17.9636 13.2353 18.3182 13.5882L22.9864 18.2353H3.01362L7.68182 13.5882C8.03636 13.2353 8.03636 12.7059 7.68182 12.3529C7.32727 12 6.79547 12 6.44092 12.3529L1.77273 17V5.70585L12.4091 13.7059C12.5864 13.8236 12.7636 13.8823 12.9409 13.8823C13.1182 13.8823 13.2954 13.8236 13.4727 13.7059L24.2273 5.70585V17ZM24.2273 1.76471V3.4706L12.9409 11.8235L1.77273 3.4706V1.76471H24.2273Z" fill="#0AD9C6"/>
</symbol><symbol id="icon-phone" viewBox="0 0 22 24">
<path d="M3.45641 6.62432C3.37185 5.42623 3.63759 4.24606 4.3412 3.29684C4.9512 2.43632 5.74541 1.96636 6.70269 1.69172C7.50898 1.4525 8.03745 1.74561 8.26998 2.64204C8.60217 3.98224 9.07628 5.3225 9.24841 6.73361C9.30277 7.35485 8.90114 8.23322 8.46629 8.6856C7.37614 9.75888 7.60263 10.5399 8.43006 12.1643C8.68675 12.6881 9.09442 13.5934 9.88864 14.7919C10.7161 15.9992 11.1539 16.6472 12.2169 16.0975C13.3977 15.5035 14.2583 15.8855 15.1492 16.8444C15.7531 17.5369 16.4175 18.1318 17.0215 18.8243C17.8942 19.8542 17.8549 20.5641 17.1725 21.2915C15.9434 22.6309 13.9141 23.0736 12.4042 22.1766C11.5707 21.6881 10.7402 21.0487 10.0789 20.303C7.16477 16.9825 5.06297 13.1212 3.79765 8.76321C3.59532 8.02654 3.50171 7.28104 3.45641 6.62432Z" stroke="#0AD9C6" stroke-width="2" stroke-miterlimit="10"/>
</symbol><symbol id="icon-play" viewBox="0 0 14 19">
<path fill-rule="evenodd" clip-rule="evenodd" d="M0.600098 0.399902L13.6001 9.4999L0.600098 18.5999V0.399902Z" fill="#070707"/>
</symbol></svg>

<svg xmlns="http://www.w3.org/2000/svg" xmlns:xlink="http://www.w3.org/1999/xlink"><defs><clipPath id="clip0"><path fill="#fff" transform="rotate(-90 6 6)" d="M0 0h12v7.4H0z"/></clipPath></defs><symbol id="icon-arrow-link"><g clip-path="url(#clip0)"><path fill-rule="evenodd" clip-rule="evenodd" d="M0 1.4L4.6 6 0 10.6 1.4 12l6-6-6-6L0 1.4z" fill="#2C2E3F" fill-opacity=".5"/></g></symbol><symbol id="icon-email"><path d="M24.227 0H1.773C.768 0 0 .765 0 1.765v16.47C0 19.235.768 20 1.773 20h22.454C25.232 20 26 19.235 26 18.235V1.765C26 .765 25.232 0 24.227 0zm0 17l-4.668-4.647a.86.86 0 00-1.24 0 .85.85 0 000 1.235l4.667 4.647H3.014l4.668-4.647a.85.85 0 000-1.235.86.86 0 00-1.241 0L1.773 17V5.706l10.636 8a.955.955 0 00.532.176.955.955 0 00.532-.176l10.754-8V17zm0-15.235V3.47l-11.286 8.352L1.773 3.471V1.765h22.454z" fill="#0AD9C6"/></symbol><symbol id="icon-phone"><path d="M3.456 6.624c-.084-1.198.182-2.378.885-3.327.61-.86 1.404-1.33 2.362-1.605.806-.24 1.334.054 1.567.95.332 1.34.806 2.68.978 4.092.055.62-.347 1.5-.782 1.952-1.09 1.073-.863 1.854-.036 3.478.257.524.664 1.43 1.459 2.628.827 1.207 1.265 1.855 2.328 1.306 1.18-.594 2.041-.212 2.932.746.604.693 1.269 1.288 1.873 1.98.872 1.03.833 1.74.15 2.467-1.229 1.34-3.258 1.783-4.768.886-.833-.489-1.664-1.128-2.325-1.874-2.914-3.32-5.016-7.182-6.281-11.54a10.989 10.989 0 01-.342-2.139z" stroke="#0AD9C6" stroke-width="2" stroke-miterlimit="10"/></symbol><symbol id="icon-play"><path fill-rule="evenodd" clip-rule="evenodd" d="M.6.4l13 9.1-13 9.1V.4z" fill="#070707"/></symbol></svg>
